groups/sulfur/sulfoxide.svg

<?xml version='1.0' encoding='iso-8859-1'?>
<svg version='1.1' baseProfile='full'
              xmlns='http://www.w3.org/2000/svg'
                      xmlns:rdkit='http://www.rdkit.org/xml'
                      xmlns:xlink='http://www.w3.org/1999/xlink'
                  xml:space='preserve'
width='256px' height='256px' viewBox='0 0 256 256'>
<!-- END OF HEADER -->
<rect style='opacity:1.0;fill:#FFFFFF;stroke:none' width='256.0' height='256.0' x='0.0' y='0.0'> </rect>
<path class='bond-0 atom-0 atom-1' d='M 39.4,176.8 L 95.7,144.5' style='fill:none;fill-rule:evenodd;stroke:#000000;stroke-width:2.0px;stroke-linecap:butt;stroke-linejoin:miter;stroke-opacity:1' />
<path class='bond-1 atom-1 atom-2' d='M 116.6,121.5 L 116.8,77.0' style='fill:none;fill-rule:evenodd;stroke:#000000;stroke-width:2.0px;stroke-linecap:butt;stroke-linejoin:miter;stroke-opacity:1' />
<path class='bond-1 atom-1 atom-2' d='M 104.3,121.4 L 104.5,77.0' style='fill:none;fill-rule:evenodd;stroke:#000000;stroke-width:2.0px;stroke-linecap:butt;stroke-linejoin:miter;stroke-opacity:1' />
<path class='bond-2 atom-1 atom-3' d='M 125.1,144.7 L 166.4,168.7' style='fill:none;fill-rule:evenodd;stroke:#000000;stroke-width:2.0px;stroke-linecap:butt;stroke-linejoin:miter;stroke-opacity:1' />
<path class='atom-1' d='M59.7375,212.273 C62.3999,210.748 60.3676,207.198 57.7052,208.723 C55.0429,210.247 53.0106,206.697 55.673,205.173 C58.3353,203.649 56.303,200.099 53.6407,201.623 C50.9783,203.147 48.9461,199.597 51.6084,198.073 C54.2707,196.549 52.2385,192.999 49.5761,194.523 C46.9138,196.047 44.8815,192.497 47.5438,190.973 C50.2062,189.449 48.1739,185.899 45.5116,187.423 C42.8492,188.947 40.8169,185.397 43.4793,183.873 C46.1416,182.349 44.1093,178.799 41.447,180.323 C38.7847,181.847 36.7524,178.297 39.4147,176.773 C42.0771,175.249 40.0448,171.699 37.3824,173.223 C34.7201,174.747 32.6878,171.197 35.3502,169.673 C38.0125,168.149 35.9802,164.599 33.3179,166.123 C30.6555,167.647 28.6233,164.098 31.2856,162.573 C33.9479,161.049 31.9157,157.499 29.2533,159.023 C26.591,160.548 24.5587,156.998 27.221,155.473 C29.8834,153.949 27.8511,150.399 25.1888,151.924 C22.5264,153.448 20.4941,149.898 23.1565,148.374 C25.8188,146.849 23.7865,143.299 21.1242,144.824 C18.4619,146.348 16.4296,142.798 19.0919,141.274' style='fill:none;stroke:#7F7F7F;stroke-width:2.0px;stroke-linecap:butt;stroke-linejoin:miter;stroke-opacity:1' />
<text x='98.4' y='156.1' class='atom-1' style='font-size:40px;font-style:normal;font-weight:normal;fill-opacity:1;stroke:none;font-family:sans-serif;text-anchor:start;fill:#000000' >S</text>
<text x='98.7' y='74.3' class='atom-2' style='font-size:40px;font-style:normal;font-weight:normal;fill-opacity:1;stroke:none;font-family:sans-serif;text-anchor:start;fill:#000000' >O</text>
<text x='169.1' y='197.3' class='atom-3' style='font-size:40px;font-style:normal;font-weight:normal;fill-opacity:1;stroke:none;font-family:sans-serif;text-anchor:start;fill:#000000' >C</text>
<text x='196.7' y='197.3' class='atom-3' style='font-size:40px;font-style:normal;font-weight:normal;fill-opacity:1;stroke:none;font-family:sans-serif;text-anchor:start;fill:#000000' >H</text>
<text x='224.3' y='213.3' class='atom-3' style='font-size:26px;font-style:normal;font-weight:normal;fill-opacity:1;stroke:none;font-family:sans-serif;text-anchor:start;fill:#000000' >3</text>
</svg>

<svg height="256" viewBox="0 0 256 256" width="256" xmlns="http://www.w3.org/2000/svg"><path d="m0 0h256v256h-256z" fill="#fff"/><g fill="none" stroke-width="2"><path d="m39.4 176.8 56.3-32.3" stroke="#000"/><path d="m116.6 121.5.2-44.5" stroke="#000"/><path d="m104.3 121.4.2-44.4" stroke="#000"/><path d="m125.1 144.7 41.3 24" stroke="#000"/><path d="m59.738 212.273c2.662-1.525.63-5.075-2.033-3.55-2.662 1.524-4.694-2.026-2.032-3.55s.63-5.074-2.032-3.55c-2.663 1.524-4.695-2.026-2.033-3.55 2.663-1.524.631-5.074-2.032-3.55-2.662 1.524-4.694-2.026-2.032-3.55s.63-5.074-2.032-3.55c-2.663 1.524-4.695-2.026-2.033-3.55 2.663-1.524.63-5.074-2.032-3.55s-4.695-2.026-2.032-3.55c2.662-1.524.63-5.074-2.033-3.55-2.662 1.524-4.694-2.026-2.032-3.55 2.663-1.524.63-5.074-2.032-3.55s-4.695-2.025-2.032-3.55c2.662-1.524.63-5.074-2.033-3.55-2.662 1.525-4.694-2.025-2.032-3.55 2.662-1.524.63-5.074-2.032-3.549-2.663 1.524-4.695-2.026-2.032-3.55 2.662-1.525.63-5.075-2.033-3.55-2.662 1.524-4.694-2.026-2.032-3.55" stroke="#7f7f7f"/></g><text font-family="sans-serif" font-size="40" x="98.4" y="156.1">S</text><text font-family="sans-serif" font-size="40" x="98.7" y="74.3">O</text><text font-family="sans-serif" font-size="40" x="169.1" y="197.3">C</text><text font-family="sans-serif" font-size="40" x="196.7" y="197.3">H</text><text font-family="sans-serif" font-size="26" x="224.3" y="213.3">3</text></svg>
